rcory/drake/examples/planar_gripper/keyframes/planar_brick_test_01a.txt
finger1_BaseJoint finger2_BaseJoint finger3_BaseJoint brick_translate_y_joint finger1_MidJoint finger2_MidJoint finger3_MidJoint brick_translate_z_joint brick_revolute_x_joint
-0.7215907541256452 0.717028647533615 0.2865748457374216 -0.00853645415347704 1.1391556230242965 -1.363699011235224 1.4 0.037589689080274054 0.35879774282006216
0.02
0 2 -1
-0.7064887559848012 0.7330040142348875 0.28330258872256286 -0.00687083564847083 1.1249921661698155 -1.3673609395161617 1.4 0.03727161847373134 0.33985521392592843
0.04
0 2 -1
-0.6913867578439572 0.7489793809361601 0.2800303317077041 -0.005205217143464619 1.1108287093153346 -1.3710228677970995 1.4 0.03695354786718863 0.32091268503179465
0.06
0 2 -1
-0.6762847597031132 0.7649547476374328 0.2767580746928453 -0.003539598638458409 1.0966652524608538 -1.374684796078037 1.4 0.036635477260645914 0.3019701561376609
0.08
0 2 -1
-0.6611827615622692 0.7809301143387053 0.2734858176779866 -0.0018739801334521982 1.0825017956063727 -1.3783467243589747 1.4 0.0363174066541032 0.28302762724352715
0.1
0 2 -1
-0.6454356582432041 0.7953617939682295 0.26975213583995805 -0.00026338225951345775 1.0658269414181691 -1.3801253265063747 1.4 0.03596432390486661 0.2652798926647147
0.12000000000000001
0 2 -1
-0.6296885549241391 0.8097934735977537 0.2660184540019296 0.0013472156144252827 1.0491520872299658 -1.3819039286537746 1.4 0.035611241155630025 0.24753215808590226
0.14
0 2 -1
-0.6139414516050742 0.824225153227278 0.2622847721639011 0.002957813488364023 1.0324772330417622 -1.3836825308011746 1.4 0.035258158406393444 0.22978442350708983
0.16
0 2 -1
-0.5981943482860091 0.8386568328568021 0.2585510903258726 0.004568411362302764 1.0158023788535586 -1.3854611329485746 1.4 0.03490507565715686 0.21203668892827737
0.18
0 2 -1
-0.5820611659872377 0.8514598660971878 0.25450066637627317 0.006092941773358283 0.9969328981495389 -1.3856437485423378 1.4 0.03453062561976229 0.19563248096320765
0.19999999999999998
0 2 -1
-0.5659279836884661 0.8642628993375735 0.2504502424266738 0.007617472184413801 0.9780634174455192 -1.3858263641361008 1.4 0.03415617558236772 0.17922827299813793
0.21999999999999997
0 2 -1
-0.5497948013896945 0.8770659325779592 0.24639981847707437 0.00914200259546932 0.9591939367414996 -1.3860089797298638 1.4 0.03378172554497315 0.1628240650330682
0.23999999999999996
0 2 -1
-0.533661619090923 0.8898689658183448 0.24234939452747495 0.010666533006524839 0.9403244560374798 -1.386191595323627 1.4 0.033407275507578583 0.14641985706799848
0.25999999999999995
0 2 -1
-0.517342048939846 0.9010158391068642 0.23812244859981463 0.012081315705010993 0.9195765974113874 -1.3850502588743003 1.4 0.03302439726445835 0.13142752125496848
0.27999999999999997
0 2 -1
-0.5010224787887689 0.9121627123953835 0.23389550267215434 0.013496098403497147 0.8988287387852949 -1.3839089224249737 1.4 0.032641519021338106 0.11643518544193845
0.3
0 2 -1
-0.48470290863769194 0.9233095856839029 0.22966855674449405 0.014910881101983301 0.8780808801592025 -1.3827675859756472 1.4 0.03225864077821787 0.10144284962890844
0.32
0 2 -1
-0.4683833384866149 0.9344564589724222 0.22544161081683373 0.016325663800469455 0.8573330215331101 -1.3816262495263205 1.4 0.031875762535097635 0.08645051381587843
0.34
0 2 -1
-0.4520237777669484 0.9439590242543496 0.22116674137700532 0.017613467026492774 0.8350032556206969 -1.3794064627905651 1.4 0.031496028536004174 0.07287908006151267
0.36000000000000004
0 2 -1
-0.4356642170472819 0.9534615895362771 0.21689187193717688 0.018901270252516096 0.8126734897082837 -1.3771866760548095 1.4 0.031116294536910716 0.059307646307146904
0.38000000000000006
0 2 -1
-0.41930465632761543 0.9629641548182046 0.21261700249734844 0.020189073478539418 0.7903437237958705 -1.374966889319054 1.4 0.03073656053781726 0.04573621255278114
0.4000000000000001
0 2 -1
-0.40294509560794894 0.972466720100132 0.20834213305752003 0.021476876704562737 0.7680139578834573 -1.3727471025832987 1.4 0.030356826538723798 0.03216477879841538
0.5252149501862828
0 2 -1
-0.4229102901622577 0.9684689586928124 0.16408398624743498 0.020877890054036546 0.626718861817287 -1.3787069487395596 1.4 0.030923221289362052 0.03833854538687842
0.6504299003725655
-1 2 -1
