rcory/drake/examples/planar_gripper/keyframes/planar_brick_test_01.txt
finger1_BaseJoint finger2_BaseJoint finger3_BaseJoint brick_translate_y_joint finger1_MidJoint finger2_MidJoint finger3_MidJoint brick_translate_z_joint brick_revolute_x_joint
-0.7215907541256452 0.717028647533615 0.2865748457374216 -0.00853645415347704 1.1391556230242965 -1.363699011235224 -0.30389879955861243 0.037589689080274054 0.35879774282006216
0.02
0 2 3
-0.7064887559848012 0.7330040142348875 0.28330258872256286 -0.00687083564847083 1.1249921661698155 -1.3673609395161617 -0.3037362894645581 0.03727161847373134 0.33985521392592843
0.04
0 2 3
-0.6913867578439572 0.7489793809361601 0.2800303317077041 -0.005205217143464619 1.1108287093153346 -1.3710228677970995 -0.3035737793705037 0.03695354786718863 0.32091268503179465
0.06
0 2 3
-0.6762847597031132 0.7649547476374328 0.2767580746928453 -0.003539598638458409 1.0966652524608538 -1.374684796078037 -0.30341126927644935 0.036635477260645914 0.3019701561376609
0.08
0 2 3
-0.6611827615622692 0.7809301143387053 0.2734858176779866 -0.0018739801334521982 1.0825017956063727 -1.3783467243589747 -0.303248759182395 0.0363174066541032 0.28302762724352715
0.1
0 2 3
-0.6454356582432041 0.7953617939682295 0.26975213583995805 -0.00026338225951345775 1.0658269414181691 -1.3801253265063747 -0.3027555430132506 0.03596432390486661 0.2652798926647147
0.12000000000000001
0 2 3
-0.6296885549241391 0.8097934735977537 0.2660184540019296 0.0013472156144252827 1.0491520872299658 -1.3819039286537746 -0.3022623268441062 0.035611241155630025 0.24753215808590226
0.14
0 2 3
-0.6139414516050742 0.824225153227278 0.2622847721639011 0.002957813488364023 1.0324772330417622 -1.3836825308011746 -0.3017691106749618 0.035258158406393444 0.22978442350708983
0.16
0 2 3
-0.5981943482860091 0.8386568328568021 0.2585510903258726 0.004568411362302764 1.0158023788535586 -1.3854611329485746 -0.3012758945058174 0.03490507565715686 0.21203668892827737
0.18
0 2 3
-0.5820611659872377 0.8514598660971878 0.25450066637627317 0.006092941773358283 0.9969328981495389 -1.3856437485423378 -0.3004205591353379 0.03453062561976229 0.19563248096320765
0.19999999999999998
0 2 3
-0.5659279836884661 0.8642628993375735 0.2504502424266738 0.007617472184413801 0.9780634174455192 -1.3858263641361008 -0.2995652237648584 0.03415617558236772 0.17922827299813793
0.21999999999999997
0 2 3
-0.5497948013896945 0.8770659325779592 0.24639981847707437 0.00914200259546932 0.9591939367414996 -1.3860089797298638 -0.29870988839437884 0.03378172554497315 0.1628240650330682
0.23999999999999996
0 2 3
-0.533661619090923 0.8898689658183448 0.24234939452747495 0.010666533006524839 0.9403244560374798 -1.386191595323627 -0.29785455302389935 0.033407275507578583 0.14641985706799848
0.25999999999999995
0 2 3
-0.517342048939846 0.9010158391068642 0.23812244859981463 0.012081315705010993 0.9195765974113874 -1.3850502588743003 -0.2966139754052458 0.03302439726445835 0.13142752125496848
0.27999999999999997
0 2 3
-0.5010224787887689 0.9121627123953835 0.23389550267215434 0.013496098403497147 0.8988287387852949 -1.3839089224249737 -0.2953733977865922 0.032641519021338106 0.11643518544193845
0.3
0 2 3
-0.48470290863769194 0.9233095856839029 0.22966855674449405 0.014910881101983301 0.8780808801592025 -1.3827675859756472 -0.2941328201679387 0.03225864077821787 0.10144284962890844
0.32
0 2 3
-0.4683833384866149 0.9344564589724222 0.22544161081683373 0.016325663800469455 0.8573330215331101 -1.3816262495263205 -0.29289224254928514 0.031875762535097635 0.08645051381587843
0.34
0 2 3
-0.4520237777669484 0.9439590242543496 0.22116674137700532 0.017613467026492774 0.8350032556206969 -1.3794064627905651 -0.29125103583631556 0.031496028536004174 0.07287908006151267
0.36000000000000004
0 2 3
-0.4356642170472819 0.9534615895362771 0.21689187193717688 0.018901270252516096 0.8126734897082837 -1.3771866760548095 -0.289609829123346 0.031116294536910716 0.059307646307146904
0.38000000000000006
0 2 3
-0.41930465632761543 0.9629641548182046 0.21261700249734844 0.020189073478539418 0.7903437237958705 -1.374966889319054 -0.28796862241037646 0.03073656053781726 0.04573621255278114
0.4000000000000001
0 2 3
-0.40294509560794894 0.972466720100132 0.20834213305752003 0.021476876704562737 0.7680139578834573 -1.3727471025832987 -0.2863274156974069 0.030356826538723798 0.03216477879841538
0.5252149501862828
0 2 3
-0.4229102901622577 0.9684689586928124 0.16408398624743498 0.020877890054036546 0.626718861817287 -1.3787069487395596 -0.1955204359945782 0.030923221289362052 0.03833854538687842
0.6504299003725655
-1 2 3
-0.44287548471656635 0.9644711972854927 0.11982583943734992 0.02027890340351035 0.4854237657511166 -1.3846667948958205 -0.1047134562917495 0.03148961604000031 0.04451231197534146
0.7756448505588482
-1 2 3
-0.462840679270875 0.9604734358781729 0.07556769262726487 0.01967991675298416 0.34412866968494626 -1.3906266410520811 -0.013906476588920802 0.032056010790638564 0.05068607856380449
0.900859800745131
-1 2 3
-0.48280587382518375 0.9564756744708532 0.03130954581717982 0.01908093010245797 0.20283357361877596 -1.396586487208342 0.07690050311390789 0.032622405541276815 0.05685984515226753
1.0260747509314136
-1 2 3
-0.4112057357465869 0.9564756744708531 0.03130954581717987 0.01908093010245797 0.09198566088597174 -1.396586487208342 0.07690050311390784 0.032622405541276815 0.05685984515226753
1.1512897011176964
-1 2 3
-0.33960559766799003 0.9564756744708531 0.031309545817179915 0.01908093010245797 -0.01886225184683249 -1.396586487208342 0.07690050311390777 0.032622405541276815 0.05685984515226753
1.276504651303979
-1 2 3
-0.26800545958939315 0.9564756744708531 0.03130954581717996 0.01908093010245797 -0.1297101645796367 -1.396586487208342 0.0769005031139077 0.032622405541276815 0.05685984515226753
1.4017196014902618
-1 2 3
-0.1964053215107963 0.956475674470853 0.031309545817180005 0.01908093010245797 -0.24055807731244094 -1.396586487208342 0.07690050311390764 0.032622405541276815 0.05685984515226753
1.5269345516765445
-1 2 3
-0.12469102321919423 0.9564756744708517 0.031309545817182136 0.01908093010245797 -0.3513702873744677 -1.396586487208342 0.07690050311390341 0.032622405541276815 0.05685984515226753
1.6521495018628272
-1 2 3
-0.05297672492759217 0.9564756744708502 0.03130954581718426 0.01908093010245797 -0.4621824974364944 -1.396586487208342 0.07690050311389918 0.032622405541276815 0.05685984515226753
1.7773644520491099
-1 2 3
0.018737573364009885 0.9564756744708489 0.03130954581718639 0.019080930102457965 -0.5729947074985211 -1.396586487208342 0.07690050311389496 0.032622405541276815 0.05685984515226753
1.9025794022353926
-1 2 3
0.09045187165561196 0.9564756744708476 0.03130954581718852 0.019080930102457965 -0.6838069175605479 -1.396586487208342 0.07690050311389073 0.032622405541276815 0.05685984515226753
2.0277943524216755
-1 2 3
0.1622353923558953 0.9564756744708476 0.05004863195608804 0.019080930102457965 -0.7946022017322816 -1.396586487208342 0.039705193177983565 0.032622405541276815 0.05685984515226753
2.153009302607958
-1 2 3
